SVG_Azure_Grouped/Management/Administrative Unit.svg

<?xml version="1.0" encoding="UTF-8" standalone="no"?>
<!-- Generated by Microsoft Visio, SVG Export Administrative Unit.svg Page-1 -->

<svg
   xmlns:dc="http://purl.org/dc/elements/1.1/"
   xmlns:cc="http://creativecommons.org/ns#"
   xmlns:rdf="http://www.w3.org/1999/02/22-rdf-syntax-ns#"
   xmlns:svg="http://www.w3.org/2000/svg"
   xmlns="http://www.w3.org/2000/svg"
   xmlns:sodipodi="http://sodipodi.sourceforge.net/DTD/sodipodi-0.dtd"
   xmlns:inkscape="http://www.inkscape.org/namespaces/inkscape"
   width="0.78735679in"
   height="0.78735679in"
   viewBox="0 0 56.689597 56.69"
   xml:space="preserve"
   class="st7"
   version="1.1"
   id="svg65"
   sodipodi:docname="Administrative Unit.svg"
   style="font-size:12px;overflow:visible;color-interpolation-filters:sRGB;fill:none;fill-rule:evenodd;stroke-linecap:square;stroke-miterlimit:3"
   inkscape:version="0.92.5 (2060ec1f9f, 2020-04-08)"><metadata
   id="metadata69"><rdf:RDF><cc:Work
       rdf:about=""><dc:format>image/svg+xml</dc:format><dc:type
         rdf:resource="http://purl.org/dc/dcmitype/StillImage" /></cc:Work></rdf:RDF></metadata><sodipodi:namedview
   pagecolor="#ffffff"
   bordercolor="#666666"
   borderopacity="1"
   objecttolerance="10"
   gridtolerance="10"
   guidetolerance="10"
   inkscape:pageopacity="0"
   inkscape:pageshadow="2"
   inkscape:window-width="640"
   inkscape:window-height="480"
   id="namedview67"
   showgrid="false"
   inkscape:zoom="1.4193119"
   inkscape:cx="37.795128"
   inkscape:cy="37.786193"
   inkscape:window-x="0"
   inkscape:window-y="0"
   inkscape:window-maximized="0"
   inkscape:current-layer="svg65" />
	<style
   type="text/css"
   id="style2">
	<![CDATA[
		.st1 {fill:url(#grad0-6);stroke:none;stroke-linecap:butt;stroke-width:34}
		.st2 {fill:url(#grad0-10);stroke:none;stroke-linecap:butt;stroke-width:34}
		.st3 {fill:url(#grad0-14);stroke:none;stroke-linecap:butt;stroke-width:34}
		.st4 {fill:#ffffff;fill-opacity:0.8;stroke:none;stroke-linecap:butt;stroke-width:34}
		.st5 {fill:url(#grad0-20);stroke:none;stroke-linecap:butt;stroke-width:34}
		.st6 {fill:#0078d4;stroke:none;stroke-linecap:butt;stroke-width:34}
		.st7 {fill:none;fill-rule:evenodd;font-size:12px;overflow:visible;stroke-linecap:square;stroke-miterlimit:3}
	]]>
	</style>

	<defs
   id="Patterns_And_Gradients">
		<linearGradient
   id="grad0-6"
   x1="-0.0091221958"
   y1="94.810403"
   x2="24.092472"
   y2="94.810403"
   gradientTransform="scale(0.95350621,1.0487609)"
   gradientUnits="userSpaceOnUse">
			<stop
   offset="0.385"
   stop-color="#005ba1"
   stop-opacity="1"
   id="stop4" />
			<stop
   offset="0.83"
   stop-color="#0078d4"
   stop-opacity="1"
   id="stop6" />
		</linearGradient>
		<linearGradient
   id="grad0-10"
   x1="-0.012374443"
   y1="89.606812"
   x2="29.276777"
   y2="89.606812"
   gradientTransform="scale(0.95337702,1.048903)"
   gradientUnits="userSpaceOnUse">
			<stop
   offset="0.39"
   stop-color="#0078d4"
   stop-opacity="1"
   id="stop9" />
			<stop
   offset="0.96"
   stop-color="#5ea0ef"
   stop-opacity="1"
   id="stop11" />
		</linearGradient>
		<linearGradient
   id="grad0-14"
   x1="-0.011314495"
   y1="133.46448"
   x2="26.750965"
   y2="133.46448"
   gradientTransform="scale(1.2847947,0.77833445)"
   gradientUnits="userSpaceOnUse">
			<stop
   offset="0"
   stop-color="#83b9f9"
   stop-opacity="1"
   id="stop14" />
			<stop
   offset="1"
   stop-color="#5ea0ef"
   stop-opacity="1"
   id="stop16" />
		</linearGradient>
		<linearGradient
   id="grad0-20"
   x1="0"
   y1="105.4455"
   x2="19.263"
   y2="105.4455"
   gradientUnits="userSpaceOnUse">
			<stop
   offset="0"
   stop-color="#83b9f9"
   stop-opacity="1"
   id="stop19" />
			<stop
   offset="0.9"
   stop-color="#5ea0ef"
   stop-opacity="1"
   id="stop21" />
		</linearGradient>
	</defs>
	<g
   id="g63"
   transform="translate(-34.000441,-34.0043)">
		<title
   id="title25">Page-1</title>
		<g
   id="group13314-1"
   transform="translate(34,-34.0157)">
			<title
   id="title27">Administrative Unit.13314</title>
			<g
   id="group13315-2">
				<title
   id="title29">Sheet.13315</title>
				<g
   id="shape13316-3"
   transform="translate(28.2205,-14.4504)">
					<title
   id="title31">Sheet.13316</title>
					<path
   d="M 22.91,122.35 A 12.378,12.378 -180 0 0 15.07,111.23 6.44094,6.44094 -180 1 0 7.84,111.18 C 3.17,112.51 0.6,116.57 0,122.35 a 2.08189,2.08189 -180 0 0 1.85,2.26 l 19.06,0.1 a 2.02835,2.02835 -180 0 0 2.06,-2 v -0.03 a 0.711811,0.711811 -180 0 0 -0.05354,-0.33386 z"
   class="st1"
   id="path33"
   inkscape:connector-curvature="0"
   style="fill:url(#grad0-6);stroke:none;stroke-width:34;stroke-linecap:butt" />
				</g>
				<g
   id="shape13317-7"
   transform="translate(17.9087,-12.0756)">
					<title
   id="title36">Sheet.13317</title>
					<path
   d="m 27.84,121.84 c -0.79,-6.33 -3.86,-11.7 -9.53,-13.51 A 7.82677,7.82677 -180 1 0 9.53,108.26 C 3.86,109.88 0.71,114.82 0,121.84 a 2.51969,2.51969 -180 0 0 2.25,2.75 l 23.16,0.12 a 2.45984,2.45984 -180 0 0 2.5,-2.43 v -0.03 a 0.894488,0.894488 -180 0 0 -0.06929,-0.4063 z"
   class="st2"
   id="path38"
   inkscape:connector-curvature="0"
   style="fill:url(#grad0-10);stroke:none;stroke-width:34;stroke-linecap:butt" />
				</g>
				<g
   id="shape13318-11"
   transform="translate(5.2315,-9.35748)">
					<title
   id="title41">Sheet.13318</title>
					<path
   d="m 31.3,124.71 a 3.05512,3.05512 -180 0 0 3.06,-3.06 1.71024,1.71024 -180 0 0 0,-0.36 c -1.21,-9.6 -6.68,-17.41 -17.1,-17.41 -10.43,0 -16.13,6.62 -17.26,17.33 a 3.07717,3.07717 -180 0 0 2.75,3.36 z"
   class="st3"
   id="path43"
   inkscape:connector-curvature="0"
   style="fill:url(#grad0-14);stroke:none;stroke-width:34;stroke-linecap:butt" />
				</g>
				<g
   id="shape13319-15"
   transform="translate(17.4929,-15.9559)">
					<title
   id="title46">Sheet.13319</title>
					<path
   d="M 5.14,112.77 A 9.5622,9.5622 0 0 1 0,111.23 l 5.14,13.48 5.13,-13.38 a 9.77953,9.77953 0 0 1 -5.13,1.44 z"
   class="st4"
   id="path48"
   inkscape:connector-curvature="0"
   style="fill:#ffffff;fill-opacity:0.8;stroke:none;stroke-width:34;stroke-linecap:butt" />
				</g>
				<g
   id="shape13320-17"
   transform="translate(12.9197,-27.8961)">
					<title
   id="title51">Sheet.13320</title>
					<circle
   cx="9.6315002"
   cy="115.077"
   class="st5"
   id="ellipse53"
   r="9.6315002"
   style="fill:url(#grad0-20);stroke:none;stroke-width:34;stroke-linecap:butt" />
				</g>
				<g
   id="shape13321-21">
					<title
   id="title56">Sheet.13321</title>
					<path
   d="m 5.4,68.02 h 6.57 v 1.9 H 5.4 Z m 48.39,1.9 h 1.07 v 1.03 h 1.83 v -2.93 h -2.9 z M 3.04,122.67 H 2.1 v -1.06 H 0 v 3.1 h 3.04 z m 51.82,-0.96 v 0.96 h -1.07 v 2.04 h 2.9 v -3 z M 2.1,70.89 v -0.97 h 0.94 v -1.9 H 0 v 2.87 z m 13.14,-2.87 h 6.57 v 1.9 h -6.57 z m 9.81,0 h 6.57 v 1.9 h -6.57 z m 9.83,0 h 6.57 v 1.9 h -6.57 z m 9.84,0 h 6.57 v 1.9 H 44.72 Z M 5.47,122.67 h 6.57 v 1.91 H 5.47 Z m 9.8,0 h 6.57 v 1.91 h -6.57 z m 9.84,0 h 6.57 v 1.91 h -6.57 z m 9.84,0 h 6.57 v 1.91 h -6.57 z m 9.8,0 h 6.57 v 1.91 H 44.75 Z M 54.79,73.18 h 1.9 v 6.57 h -1.9 z m 0,9.81 h 1.9 v 6.57 h -1.9 z m 0,9.84 h 1.9 v 6.57 h -1.9 z m 0,9.8 h 1.9 v 6.57 h -1.9 z m 0,9.84 h 1.9 v 6.57 h -1.9 z M 0,73.12 h 1.9 v 6.57 H 0 Z m 0,9.84 h 1.9 v 6.57 H 0 Z m 0,9.8 h 1.9 v 6.57 H 0 Z m 0,9.84 h 1.9 v 6.57 H 0 Z m 0,9.8 h 1.9 v 6.57 H 0 Z"
   class="st6"
   id="path58"
   inkscape:connector-curvature="0"
   style="fill:#0078d4;stroke:none;stroke-width:34;stroke-linecap:butt" />
				</g>
			</g>
		</g>
	</g>
</svg>

<?xml version="1.0" encoding="UTF-8" standalone="no"?>
<!DOCTYPE svg PUBLIC "-//W3C//DTD SVG 1.1//EN" "http://www.w3.org/Graphics/SVG/1.1/DTD/svg11.dtd">
<!-- Generated by Microsoft Visio, SVG Export Administrative Unit.svg Page-1 -->
<svg xmlns="http://www.w3.org/2000/svg" xmlns:xlink="http://www.w3.org/1999/xlink" xmlns:ev="http://www.w3.org/2001/xml-events"
		width="1.73185in" height="1.73206in" viewBox="0 0 124.693 124.709" xml:space="preserve" color-interpolation-filters="sRGB"
		class="st7">
	<style type="text/css">
	<![CDATA[
		.st1 {fill:url(#grad0-6);stroke:none;stroke-linecap:butt;stroke-width:34}
		.st2 {fill:url(#grad0-10);stroke:none;stroke-linecap:butt;stroke-width:34}
		.st3 {fill:url(#grad0-14);stroke:none;stroke-linecap:butt;stroke-width:34}
		.st4 {fill:#ffffff;fill-opacity:0.8;stroke:none;stroke-linecap:butt;stroke-width:34}
		.st5 {fill:url(#grad0-20);stroke:none;stroke-linecap:butt;stroke-width:34}
		.st6 {fill:#0078d4;stroke:none;stroke-linecap:butt;stroke-width:34}
		.st7 {fill:none;fill-rule:evenodd;font-size:12px;overflow:visible;stroke-linecap:square;stroke-miterlimit:3}
	]]>
	</style>

	<defs id="Patterns_And_Gradients">
		<linearGradient id="grad0-6" x1="0" y1="0" x2="1" y2="0" gradientTransform="rotate(-27.687361377742 0.5 0.5)">
			<stop offset="0.385" stop-color="#005ba1" stop-opacity="1"/>
			<stop offset="0.83" stop-color="#0078d4" stop-opacity="1"/>
		</linearGradient>
		<linearGradient id="grad0-10" x1="0" y1="0" x2="1" y2="0" gradientTransform="rotate(-28.39660327131 0.5 0.5)">
			<stop offset="0.39" stop-color="#0078d4" stop-opacity="1"/>
			<stop offset="0.96" stop-color="#5ea0ef" stop-opacity="1"/>
		</linearGradient>
		<linearGradient id="grad0-14" x1="0" y1="0" x2="1" y2="0" gradientTransform="rotate(90 0.5 0.5)">
			<stop offset="0" stop-color="#83b9f9" stop-opacity="1"/>
			<stop offset="1" stop-color="#5ea0ef" stop-opacity="1"/>
		</linearGradient>
		<linearGradient id="grad0-20" x1="0" y1="0" x2="1" y2="0" gradientTransform="rotate(85.401258508815 0.5 0.5)">
			<stop offset="0" stop-color="#83b9f9" stop-opacity="1"/>
			<stop offset="0.9" stop-color="#5ea0ef" stop-opacity="1"/>
		</linearGradient>
	</defs>
	<g>
		<title>Page-1</title>
		<g id="group13021-1" transform="translate(34,-34.0157)">
			<title>Administrative Unit.13021</title>
			<g id="group13022-2">
				<title>Sheet.13022</title>
				<g id="shape13023-3" transform="translate(28.2205,-14.4504)">
					<title>Sheet.13023</title>
					<path d="M22.91 122.35 A12.378 12.378 -180 0 0 15.07 111.23 A6.44094 6.44094 -180 1 0 7.84 111.18 C3.17 112.51
								 0.6 116.57 0 122.35 A2.08189 2.08189 -180 0 0 1.85 124.61 L20.91 124.71 A2.02835 2.02835 -180 0
								 0 22.97 122.71 L22.97 122.68 a0.711811 0.711811 -180 0 0 -0.0535433 -0.333858 Z" class="st1"/>
				</g>
				<g id="shape13024-7" transform="translate(17.9087,-12.0756)">
					<title>Sheet.13024</title>
					<path d="M27.84 121.84 C27.05 115.51 23.98 110.14 18.31 108.33 A7.82677 7.82677 -180 1 0 9.53 108.26 C3.86 109.88
								 0.71 114.82 0 121.84 A2.51969 2.51969 -180 0 0 2.25 124.59 L25.41 124.71 A2.45984 2.45984 -180 0
								 0 27.91 122.28 L27.91 122.25 a0.894488 0.894488 -180 0 0 -0.0692913 -0.406299 Z" class="st2"/>
				</g>
				<g id="shape13025-11" transform="translate(5.2315,-9.35748)">
					<title>Sheet.13025</title>
					<path d="M31.3 124.71 A3.05512 3.05512 -180 0 0 34.36 121.65 A1.71024 1.71024 -180 0 0 34.36 121.29 C33.15 111.69
								 27.68 103.88 17.26 103.88 C6.83 103.88 1.13 110.5 0 121.21 A3.07717 3.07717 -180 0 0 2.75 124.57
								 L31.3 124.71 Z" class="st3"/>
				</g>
				<g id="shape13026-15" transform="translate(17.4929,-15.9559)">
					<title>Sheet.13026</title>
					<path d="M5.14 112.77 A9.5622 9.5622 0 0 1 0 111.23 L5.14 124.71 L10.27 111.33 A9.77953 9.77953 0 0 1 5.14 112.77
								 Z" class="st4"/>
				</g>
				<g id="shape13027-17" transform="translate(12.9197,-27.8961)">
					<title>Sheet.13027</title>
					<ellipse cx="9.6315" cy="115.077" rx="9.6315" ry="9.6315" class="st5"/>
				</g>
				<g id="shape13028-21">
					<title>Sheet.13028</title>
					<path d="M5.4 68.02 L11.97 68.02 L11.97 69.92 L5.4 69.92 L5.4 68.02 ZM53.79 69.92 L54.86 69.92 L54.86 70.95 L56.69
								 70.95 L56.69 68.02 L53.79 68.02 L53.79 69.92 ZM3.04 122.67 L2.1 122.67 L2.1 121.61 L0 121.61 L0
								 124.71 L3.04 124.71 L3.04 122.67 ZM54.86 121.71 L54.86 122.67 L53.79 122.67 L53.79 124.71 L56.69
								 124.71 L56.69 121.71 L54.86 121.71 ZM2.1 70.89 L2.1 69.92 L3.04 69.92 L3.04 68.02 L0 68.02 L0 70.89
								 L2.1 70.89 ZM15.24 68.02 L21.81 68.02 L21.81 69.92 L15.24 69.92 L15.24 68.02 ZM25.05 68.02 L31.62
								 68.02 L31.62 69.92 L25.05 69.92 L25.05 68.02 ZM34.88 68.02 L41.45 68.02 L41.45 69.92 L34.88 69.92
								 L34.88 68.02 ZM44.72 68.02 L51.29 68.02 L51.29 69.92 L44.72 69.92 L44.72 68.02 ZM5.47 122.67 L12.04
								 122.67 L12.04 124.58 L5.47 124.58 L5.47 122.67 ZM15.27 122.67 L21.84 122.67 L21.84 124.58 L15.27
								 124.58 L15.27 122.67 ZM25.11 122.67 L31.68 122.67 L31.68 124.58 L25.11 124.58 L25.11 122.67 ZM34.95
								 122.67 L41.52 122.67 L41.52 124.58 L34.95 124.58 L34.95 122.67 ZM44.75 122.67 L51.32 122.67 L51.32
								 124.58 L44.75 124.58 L44.75 122.67 ZM54.79 73.18 L56.69 73.18 L56.69 79.75 L54.79 79.75 L54.79 73.18
								 ZM54.79 82.99 L56.69 82.99 L56.69 89.56 L54.79 89.56 L54.79 82.99 ZM54.79 92.83 L56.69 92.83 L56.69
								 99.4 L54.79 99.4 L54.79 92.83 ZM54.79 102.63 L56.69 102.63 L56.69 109.2 L54.79 109.2 L54.79 102.63
								 ZM54.79 112.47 L56.69 112.47 L56.69 119.04 L54.79 119.04 L54.79 112.47 ZM0 73.12 L1.9 73.12 L1.9
								 79.69 L0 79.69 L0 73.12 ZM0 82.96 L1.9 82.96 L1.9 89.53 L0 89.53 L0 82.96 ZM0 92.76 L1.9 92.76 L1.9
								 99.33 L0 99.33 L0 92.76 ZM0 102.6 L1.9 102.6 L1.9 109.17 L0 109.17 L0 102.6 ZM0 112.4 L1.9 112.4
								 L1.9 118.97 L0 118.97 L0 112.4 Z" class="st6"/>
				</g>
			</g>
		</g>
	</g>
</svg>
